X:1
T:The North Star
M:6/8
L:1/8
C:Brian Finnegan
R:jig
D:Flook:Rubai
Z:robin.beech@mcgill.ca
K:G
G2D G B/2c/2d | cBG dBG | E2d dBG | F2d cde |
G2D G B/2c/2d | cBG dBG | EGd F2d |1 G3 dBA :|2 G3- G2B |:
G2F GDD | ABF G2D | EFG ADc- | cBG AFB |1
G2F GDD | ABF G2D | EFG ADF | GDB DAD :|2
GGF G2d | dcB G2D | EFG ABF | G6 |]
